!!!COM: Bach, Johann Sebastian
!!!CDT: 1685/3//-1750/7/28/
!!!OTL@@DE: Wer nur den lieben Gott laesst walten
!!!SCT: BH 339
!!!SCT: BWV 179
!!!AGN: 4-Part Chorale
**harm	**root	**kern	**kern	**kern	**kern
*	*Iorgan	*Iorgan	*Iorgan	*Iorgan	*Iorgan
!	!	!bass	!tenor	!alto	!soprno
*	*	*clefF4	*clefF4	*clefG2	*clefG2
*M4/4	*M4/4	*M4/4	*M4/4	*M4/4	*M4/4
*met(c)	*met(c)	*met(c)	*met(c)	*met(c)	*met(c)
*MM60	*MM60	*MM60	*MM60	*MM60	*MM60
*k[b-e-]	*k[b-e-]	*k[b-e-]	*k[b-e-]	*k[b-e-]	*k[b-e-]
*g:	*g:	*g:	*g:	*g:	*g:
*>A	*>A	*>A	*>A	*>A	*>A
i	4AA	8G	4B-	4d	4d
.	.	8F	.	.	.
=1	=1	=1	=1	=1	=1
VI	4FF	4E-	8B-	16d	4g
.	.	.	.	16c	.
.	.	.	16A	4e-	.
.	.	.	16G	.	.
V	4EE	4D	8F#	.	4a
.	.	.	8d	16d	.
.	.	.	.	16c	.
I	4AA	4GG	4d	8B-	4b-
.	.	.	.	4g	.
V/V	4BB	4AA	4c#	.	4a
.	.	.	.	[8f	.
=2	=2	=2	=2	=2	=2
V7b/IV	4AA	4BB	4d	8f]	4g
.	.	.	.	16e	.
.	.	.	.	16d	.
Vb/V	4BB	4C#	4A	8e	4a
.	.	.	.	8e	.
V7	2EE	2D	4.A	8e	4.f#
.	.	.	.	8d	.
.	.	.	.	8c	.
.	.	.	8G	8B-	8e
=3	=3	=3	=3	=3	=3
V;	4EE;	4D;	4F#;	4A;	4d;
vii/IV	4CC#	4BB	4D	8d	4f
.	.	.	.	8c	.
V7/IV	4AA	4GG	4G	4B	4f
iv	4DD	4E-	4G	4c	4e-
=4	=4	=4	=4	=4	=4
V7d	8EE	8C	8F#	8A	4d
ib	8AA	8BB-	8G	8B-	.
ii7Dc	8BB	8E-	8A	8c	4g
ic	8AA	8D	8B-	8d	.
vii7D/V	4DD#	4C#	8B-	4e	4g
.	.	.	8A	.	.
V	4EE	4D	4A	4d	4f#
=5	=5	=5	=5	=5	=5
I	2.AA	2.GG;	2.B;	2.d;	2.g;
!!linebreak: 2
=:|!	=:|!	=:|!	=:|!	=:|!	=:|!
*>B	*>B	*>B	*>B	*>B	*>B
V	4EE	4D	4d	4f#	4a
=6	=6	=6	=6	=6	=6
i	4AA	4G	16d	4g	4b-
.	.	.	16B-	.	.
.	.	.	4e-	.	.
V7/III	4GG	8F	.	4a	4cc
.	.	8E-	16d	.	.
.	.	.	16e-	.	.
III	4CC	8D	8B-	8b-	4dd
.	.	8C	8c	8f	.
III	4CC	4BB-	4d	8b-	4dd
.	.	.	.	8a-	.
=7	=7	=7	=7	=7	=7
iv	4DD	8C	8e-	4g	4cc
.	.	16D	8c	.	.
.	.	16E-	.	.	.
V7/III	4GG	8F	8f	4a	4cc
.	.	8FF	8e-	.	.
III;	4CC;	4BB-;	4d;	4f;	4b-;
III	4CC	4BB-	4B-	4f	4dd
=8	=8	=8	=8	=8	=8
iv	4DD	4C	8B-	4e-	4cc
.	.	.	8A	.	.
vii7D/V	4DD#	4C#	8G	4e	4b-
.	.	.	16F#	.	.
.	.	.	16G	.	.
V7	4EE	4D	8D	4f#	4a
.	.	.	8c	.	.
VI	4FF	4E-	8B-	4g	4g
.	.	.	8A	.	.
=9	=9	=9	=9	=9	=9
vii7D/V	4DD#	8E	4.G	8c#	4b-
.	.	8C#	.	8e	.
V7	4EE	8D	.	8e-	4a
.	.	8DD	8F#	16d	.
.	.	.	.	16c	.
I;	4AA;	4GG;	4D;	4B;	4g;
==	==	==	==	==	==
*-	*-	*-	*-	*-	*-
!!chor2scor: -l 2 -s 0.6 -o %b.pmx
!!!YEC: Copyright 2003 by Craig Stuart Sapp
!!!license: GNU General Public License (http://www.gnu.org/copyleft/gpl.html)
!!!SMA: 371 Bach Chorales, edited by Ludwig Erk, C.F. Peters
!!!PDT: 1850, 1865
!!!ONB: Harmony and Root analysis done manually by Craig Sapp
